static/assets/img/icons/theme/devices/usb-storage.svg

<svg height="24" viewBox="0 0 24 24" width="24" xmlns="http://www.w3.org/2000/svg"><g fill="none" fill-rule="evenodd"><path d="m0 0h24v24h-24z" opacity="0"/><g fill="#000"><path d="m11.5 17.4497475-4.94974747-4.9497475c-.39052429-.3905243-.39052429-1.0236893 0-1.4142136l7.07106777-7.07106777c.7810486-.78104859 2.0473786-.78104859 2.8284272 0l3.5355339 3.5355339c.7810486.78104859.7810486 2.04737854 0 2.82842717l-7.0710678 7.0710678c-.3905243.3905243-1.0236893.3905243-1.4142136 0z"/><path d="m6.90380592 19.9246212-2.82842712-2.8284271c-.19526215-.1952622-.19526215-.5118447 0-.7071068l2.47487373-2.4748737 3.53553387 3.5355339-2.4748737 2.4748737c-.19526214.1952621-.51184463.1952621-.70710678 0z" opacity=".3"/></g></g></svg>

<svg width="24px" height="24px" viewBox="0 0 24 24" version="1.1" xmlns="http://www.w3.org/2000/svg" xmlns:xlink="http://www.w3.org/1999/xlink">
    <title>Icon For Usb-storage</title>
    <g stroke="none" stroke-width="1" fill="none" fill-rule="evenodd">
        <rect opacity="0" x="0" y="0" width="24" height="24"></rect>
        <path d="M11.5,17.4497475 L6.55025253,12.5 C6.15972824,12.1094757 6.15972824,11.4763107 6.55025253,11.0857864 L13.6213203,4.01471863 C14.4023689,3.23367004 15.6686989,3.23367004 16.4497475,4.01471863 L19.9852814,7.55025253 C20.76633,8.33130112 20.76633,9.59763107 19.9852814,10.3786797 L12.9142136,17.4497475 C12.5236893,17.8402718 11.8905243,17.8402718 11.5,17.4497475 Z" fill="#000000"></path>
        <path d="M6.90380592,19.9246212 L4.0753788,17.0961941 C3.88011665,16.9009319 3.88011665,16.5843494 4.0753788,16.3890873 L6.55025253,13.9142136 L10.0857864,17.4497475 L7.6109127,19.9246212 C7.41565056,20.1198833 7.09906807,20.1198833 6.90380592,19.9246212 Z" fill="#000000" opacity="0.3"></path>
    </g>
</svg>
